X:1
T:Pero mira como beben
T:Villancio popular de Extremadura
%%score 1 2 3
L:1/8
M:2/4
K:D
V:1 treble nm="Soprano" snm="S."
V:2 treble nm="Alto" snm="A."
V:3 treble-8 nm="Tenor" snm="T."
V:1
!mf!"^Allegretto""^Allegretto" d2 dd | d2 cB | (cB c^A) | F2 z2 | e2 ee | e2 dc | (dB dc) | B2 z2 | %8
w: La Vir gen|sees ta pei|nan * * *|do|en tre cor|ti nay cor|ti * * *|na|
w: La Vir gen|va ca mi|nan * * *|do|va ca mi|nan do so|li * * *|ta|
w: La Vir gen|la va pa|ħa * * *|les|y los tien|deen el ro|me * * *|ro|
 d2 dd | d2 cB | (cB c^A) | F2 z2 | e2 ee | e2 ec | (dc dc) | B2 z B/c/ | dd dd | d2 dd | ed ed | %19
w: los ca be|llos son de|o * * *|ro|los pei nes|de pla ta|fi * * *|na Pe ro|mi ra co mo|be ben los|pe ces en el|
w: y no lle|va mġs com|pa * * *|ħa|quel Ni ħo|de su ma|ni * * *|ta * *||||
w: los pa ja|ri tos le|can * * *|tan|yel a gua|se va ri|en * * *|do * *||||
 c2 cc/d/ | ed ed | c2 cB | ^AB cd | B2 B2 | d2 dd | d2 dd | ed ed | c2 z c/d/ | ed ed | c2 cB | %30
w: ri o pe ro|mi ra co mo|be ben por|ver a Dios na|ci do|Be ben y|be ben y|vuel ven a be|ber Pe ro|mi ra co mo|be ben por|
w: |||||||||||
w: |||||||||||
 ^AB cd | !fermata!B4!D.C.!!D.C.! || z2 !>!B2 | !>!^A2 !>!B2 | !>!c2 !>!d2 | !fermata!B4 |] %36
w: ver a Dios na|cer|||||
w: ||||||
w: ||||||
V:2
!mf! !>!D2 !>!E2 | !>!F2 !>!G2 | !>!F2 !>!G2 | !>!F2 !>!G!>!F | !>!E2 !>!F2 | !>!G2 !>!B2 | %6
w: La la|la la|la la|la la la|la la|la la|
 !>!^A2 !>!F2 | .F.E .F.E | .D.E .F2 | .E.F .G2 | .G.F .E2 | .E.D .C2 | .C.D .E2 | .E.F .G2 | %14
w: la la|la la la la|la la la|la la la|la la la|la la la|la la la|la la la|
 .G.F .E2 | .F.E .F.E | .D2!f! z D/E/ | FF GA | G2 GA | GF GF | E2 EE/F/ | GF GF | E2 EE | %23
w: la la la|la la la la|la Pe ro|mi ra co mo|be ben los|pe ces en el|ri o Pe ro|mi ra co mo|be ben y|
 (FE) D2 |!ff! F2 FF | F2 FF | GF EF | G2 z B/B/ | BB BB | G2 GG | FF ^AA |!ff! !fermata!B4 || %32
w: be * ben|Be ben y|be ben y|vuel ven a be|ber Pe ro|mi ra co mo|be ben por|ver a Dios na|cer|
 z2 !>!F2 | !>!F2 !>!F2 | !>!^A2 !>!A2 | !fermata!B4 |] %36
w: Por|ver a|Dios na|cer|
V:3
!mf! !>!B,2 !>!C2 | !>!D2 !>!E2 | !>!D2 !>!E2 | !>!F2 !>!E!>!D | !>!C2 !>!D2 | !>!E2 !>!G2 | %6
w: La la|la la|la la|la la la|la la|la la|
 !>!F2 !>!E2 | .D.C .D.C | .B,.C .D2 | .C.D .E2 | .E.D .C2 | .C.B, .^A,2 | .^A,.B, .C2 | .C.D .E2 | %14
w: la la|la la la la|la la la|la la la|la la la|la la la|la la la|la la la|
 .E.D .C2 | .D.C .D.C | .B,2!f! z B,/C/ | DD EF | E2 EF | ED ED | C2 CC/D/ | ED ED | C2 CC | %23
w: la la la|la la la la|la Pe ro|mi ra co mo|be ben los|pe ces en el|ri o Pe ro|mi ra co mo|be ben y|
 (DC) B,2 |!ff! B,2 B,B, | B,2 B,B, | B,B, B,B, | E2 z D/F/ | GF GF | E2 ED | CD EF | %31
w: be * ben|Be ben y|be ben y|vuel ven a be|ber Pe ro|mi ra co mo|be ben por|ver a Dios na|
 !fermata![DF]4 ||!ff! z2 !>!D2 | !>!C2 !>!D2 | !>!E2 !>!=F2 | !fermata![B,F]4 |] %36
w: cer|Por|ver a|Dios na|cer|

